X:311
T:Love is the Only Magic
M:3/4
C:© Paul Gitlitz 2011
K:Em
"Em"B2E2G2|B6|"C"B2e3d|"G/B"B6|!
"D"A2G3F|F6|"Bm"F3G Ac|B3A GA|!
"Em"B2E2G2|B6|"C"B2e3d|"G/B"B6|!
"D"A3Bc2|F3GA2|"Bm"B3A GF|1"Em"E4 GA:|2"Em"E3B cd|!
|:"C"e3d cd|e6|"G"d3c Bc|d6|!
"Am"c3BA2|A6|F3 G Ac|"B7"B4GA|!
"Em"B2E2G2|B4 ed|"C"c3BA2|"Em"B6|!
"C"c2A3c|"Em"B2G3B|"D"A3G F2|1"Em"E3B cd:|2"Em"E6|]
